X:601
T:The Stranger
R:set dance
D:Elizabeth Crotty: Concertina Music from West Clare
Z:Julie Ross
M:C|
K:G
dc|: B2BG A2(3ABc|dcAF G2FG|AFDD FAGF|DEFG A2dc|
B2BG A2(3ABc|dcAF G2FG|AFDD FAGF|1 D2D2 D2dc :|2 D2DD D2FG||
Adde f2(3efe|dcAF A2FG|Adde f2(3efe|d2d2 d2FG|
Adde f2(3efe|dcAF G2FG|AFDD FAGF|D2D2 D2FG||
Adde f2(3efe|dcAF A2FG|Adde f2 {ef}ed|cdec defg|
afge (3fed ed|dcAF G2FG|AFDD FAGF|D2D2 D2 ||
